icon_installer/data/icons/scalable/actions/show-screen-privacy2-symbolic.svg

<?xml version="1.0" encoding="UTF-8"?>
<svg height="16px" viewBox="0 0 16 16" width="16px" xmlns="http://www.w3.org/2000/svg">
    <g fill="#222222">
        <path d="m 3 1 c -1.660156 0 -3 1.339844 -3 3 v 7 c 0 1.660156 1.339844 3 3 3 h 10 c 1.664062 0 3 -1.339844 3 -3 v -7 c 0 -1.660156 -1.335938 -3 -3 -3 z m 0 2 h 10 c 0.554688 0 1 0.445312 1 1 v 7 c 0 0.554688 -0.445312 1 -1 1 h -10 c -0.554688 0 -1 -0.445312 -1 -1 v -7 c 0 -0.554688 0.445312 -1 1 -1 z m 0 0"/>
        <path d="m 8 16 c 3 0 4 -1 4 -1 h -8 s 1 1 4 1 z m 0 0"/>
        <path d="m 8 4 c -1.097656 0 -2 0.902344 -2 2 v 1 h -0.453125 c -0.3125 0 -0.546875 0.171875 -0.546875 0.5 v 3.5 h 6 v -3.5 c 0 -0.257812 -0.210938 -0.5 -0.5 -0.5 h -0.5 v -1 c 0 -1.097656 -0.902344 -2 -2 -2 z m 0 1 c 0.558594 0 1 0.441406 1 1 v 1 h -2 v -1 c 0 -0.558594 0.441406 -1 1 -1 z m 0 0"/>
    </g>
</svg>

<svg xmlns="http://www.w3.org/2000/svg" width="16" height="16"><g fill="#222"><path d="M3 1C1.34 1 0 2.34 0 4v7c0 1.66 1.34 3 3 3h10c1.664 0 3-1.34 3-3V4c0-1.66-1.336-3-3-3zm0 2h10c.555 0 1 .445 1 1v7c0 .555-.445 1-1 1H3c-.555 0-1-.445-1-1V4c0-.555.445-1 1-1zm5 13c3 0 4-1 4-1H4s1 1 4 1zm0 0"/><path d="M8 4c-1.098 0-2 .902-2 2v1h-.453C5.234 7 5 7.172 5 7.5V11h6V7.5c0-.258-.21-.5-.5-.5H10V6c0-1.098-.902-2-2-2zm0 1c.559 0 1 .441 1 1v1H7V6c0-.559.441-1 1-1zm0 0"/></g></svg>
